X: 56
T:Cherokee Shuffle
% Nottingham Music Database
S:via PR
M:4/4
L:1/4
K:A
F/2G/2|"A"AA/2B/2 AA/2B/2|"A"c/2B/2A "D"FE/2F/2|"A"AA/2B/2 c/2d/2e|\
"F#m"f/2e/2f/2g/2 ff/2g/2|
"D"aa/2b/2 aa/2f/2|"A"e/2f/2e/2d/2 c/2B/2A|"F#m"F/2G/2A/2c/2 "E7"B/2A/2G|"A"A3\
